img/drawers_empty.svg

<svg width="285" height="268" viewBox="0 0 285 268" fill="none" xmlns="http://www.w3.org/2000/svg">
<path d="M70.6406 262H67.418L63.1289 254.992L58.8047 262H55.8047L61.4883 253.117L56.168 244.867H59.2852L63.2461 251.348L67.207 244.867H70.2305L64.875 253.164L70.6406 262ZM77.8828 256.668V254.441H99.9609V256.668H77.8828ZM122.039 262H118.816L114.527 254.992L110.203 262H107.203L112.887 253.117L107.566 244.867H110.684L114.645 251.348L118.605 244.867H121.629L116.273 253.164L122.039 262ZM122.086 249.039H125.086L127.723 256.387C128.121 257.434 128.387 258.418 128.52 259.34H128.613C128.684 258.91 128.812 258.391 129 257.781C129.188 257.164 130.18 254.25 131.977 249.039H134.953L129.41 263.723C128.402 266.418 126.723 267.766 124.371 267.766C123.762 267.766 123.168 267.699 122.59 267.566V265.387C123.004 265.48 123.477 265.527 124.008 265.527C125.336 265.527 126.27 264.758 126.809 263.219L127.289 262L122.086 249.039ZM149.355 266.582H146.789V262H137.906V266.582H135.363V259.867H136.418C137.34 258.547 138.07 256.953 138.609 255.086C139.156 253.211 139.48 251.195 139.582 249.039H147.457V259.867H149.355V266.582ZM144.75 259.867V251.148H141.961C141.812 252.758 141.5 254.344 141.023 255.906C140.555 257.469 139.98 258.789 139.301 259.867H144.75ZM163.254 255.496C163.254 257.613 162.711 259.266 161.625 260.453C160.539 261.641 159.027 262.234 157.09 262.234C155.879 262.234 154.809 261.961 153.879 261.414C152.949 260.867 152.234 260.082 151.734 259.059C151.234 258.035 150.984 256.848 150.984 255.496C150.984 253.395 151.523 251.754 152.602 250.574C153.68 249.395 155.199 248.805 157.16 248.805C159.035 248.805 160.52 249.41 161.613 250.621C162.707 251.824 163.254 253.449 163.254 255.496ZM153.82 255.496C153.82 258.488 154.926 259.984 157.137 259.984C159.324 259.984 160.418 258.488 160.418 255.496C160.418 252.535 159.316 251.055 157.113 251.055C155.957 251.055 155.117 251.438 154.594 252.203C154.078 252.969 153.82 254.066 153.82 255.496ZM172.816 255.332V249.039H175.383V255.332L180.375 249.039H183.281L178.184 255.309L183.738 262H180.703L175.383 255.426V262H172.816V255.426L167.508 262H164.484L170.027 255.309L164.941 249.039H167.848L172.816 255.332ZM188.496 249.039V254.242H194.602V249.039H197.355V262H194.602V256.41H188.496V262H185.742V249.039H188.496ZM203.941 249.039V255.684C203.941 256.457 203.879 257.594 203.754 259.094L210.258 249.039H213.621V262H210.973V255.473C210.973 255.113 210.992 254.531 211.031 253.727C211.078 252.922 211.117 252.336 211.148 251.969L204.668 262H201.305V249.039H203.941ZM225.586 249.039H228.609L223.254 255.285L229.066 262H225.902L220.301 255.426V262H217.547V249.039H220.301V255.332L225.586 249.039Z" fill="#666666"/>
<path d="M64.7355 46.8043C70.8078 46.8043 75.7488 41.8632 75.7488 35.7909C75.7488 29.7186 70.8078 24.7776 64.7355 24.7776C58.6632 24.7776 53.7222 29.7186 53.7222 35.7909C53.7222 41.8632 58.6632 46.8043 64.7355 46.8043V46.8043ZM64.7355 31.0709C67.3386 31.0709 69.4555 33.1878 69.4555 35.7909C69.4555 38.394 67.3386 40.5109 64.7355 40.5109C62.1324 40.5109 60.0155 38.394 60.0155 35.7909C60.0155 33.1878 62.1332 31.0709 64.7355 31.0709Z" fill="#999999"/>
<path d="M207.909 89.2843C207.909 95.3566 212.85 100.298 218.922 100.298C224.994 100.298 229.935 95.3566 229.935 89.2843C229.935 83.212 224.994 78.271 218.922 78.271C212.85 78.271 207.909 83.212 207.909 89.2843V89.2843ZM218.922 84.5643C221.525 84.5643 223.642 86.6812 223.642 89.2843C223.642 91.8874 221.525 94.0043 218.922 94.0043C216.319 94.0043 214.202 91.8874 214.202 89.2843C214.202 86.6812 216.32 84.5643 218.922 84.5643Z" fill="#999999"/>
<path d="M231.509 55.0872C233.476 55.0872 235.071 53.492 235.071 51.5244C235.071 49.5567 233.476 47.9615 231.509 47.9615C229.541 47.9615 227.946 49.5567 227.946 51.5244C227.946 53.492 229.541 55.0872 231.509 55.0872Z" fill="#999999"/>
<path d="M80.4686 67.6738C82.4363 67.6738 84.0314 66.0787 84.0314 64.111C84.0314 62.1433 82.4363 60.5482 80.4686 60.5482C78.5009 60.5482 76.9058 62.1433 76.9058 64.111C76.9058 66.0787 78.5009 67.6738 80.4686 67.6738Z" fill="#999999"/>
<path d="M196.757 40.6495C197.371 41.2639 198.177 41.5714 198.982 41.5714C199.786 41.5714 200.592 41.2639 201.206 40.6495L204.762 37.0937L208.318 40.6495C208.932 41.2639 209.738 41.5714 210.543 41.5714C211.347 41.5714 212.153 41.2639 212.767 40.6495C213.996 39.4207 213.996 37.4289 212.767 36.2001L209.212 32.6444L212.767 29.0886C213.996 27.8598 213.996 25.868 212.767 24.6392C211.538 23.4105 209.547 23.4105 208.318 24.6392L204.762 28.195L201.206 24.6392C199.978 23.4105 197.986 23.4105 196.757 24.6392C195.528 25.868 195.528 27.8598 196.757 29.0886L200.313 32.6444L196.757 36.2001C195.528 37.4289 195.528 39.4199 196.757 40.6495V40.6495Z" fill="#999999"/>
<path d="M52.01 106.729C52.6243 107.344 53.4299 107.651 54.2347 107.651C55.0394 107.651 55.845 107.344 56.4593 106.729L60.0151 103.174L63.5708 106.729C64.1852 107.344 64.9907 107.651 65.7955 107.651C66.6003 107.651 67.4058 107.344 68.0202 106.729C69.249 105.501 69.249 103.509 68.0202 102.28L64.4645 98.7243L68.0202 95.1686C69.249 93.9398 69.249 91.948 68.0202 90.7192C66.7914 89.4904 64.7996 89.4904 63.5708 90.7192L60.0151 94.2749L56.4593 90.7192C55.2306 89.4904 53.2387 89.4904 52.01 90.7192C50.7812 91.948 50.7812 93.9398 52.01 95.1686L55.5657 98.7243L52.01 102.28C50.7812 103.509 50.7812 105.5 52.01 106.729V106.729Z" fill="#999999"/>
<path d="M159.135 108.164C160.873 108.164 162.282 106.755 162.282 105.018C162.282 103.28 160.873 101.871 159.135 101.871C157.398 101.871 155.989 103.28 155.989 105.018C155.989 106.755 157.398 108.164 159.135 108.164Z" fill="#999999"/>
<path d="M127.669 108.164C129.406 108.164 130.815 106.755 130.815 105.018C130.815 103.28 129.406 101.871 127.669 101.871C125.931 101.871 124.522 103.28 124.522 105.018C124.522 106.755 125.931 108.164 127.669 108.164Z" fill="#999999"/>
<path d="M230.249 155.994C226.258 152.998 225.923 148.158 225.536 142.557C224.93 133.823 224.177 122.958 206.726 120.775C197.833 119.672 189.017 122.521 181.888 128.811C175.963 134.044 171.779 141.182 169.829 148.901L157.563 143.328V140.789C157.563 140.76 157.547 140.735 157.546 140.706C169.589 134.952 178.745 124.23 182.46 111.305C184.553 111.36 186.479 110.797 188.381 109.612C191.301 107.79 193.277 104.827 193.664 101.681C194.054 98.5277 193.077 95.366 190.991 93.0029C189.556 91.3832 187.694 90.237 185.647 89.6753C185.641 89.1223 185.619 87.1116 185.611 86.9023C185.769 86.5247 185.884 72.8768 185.884 72.8768C186.612 72.7903 187.322 72.6581 187.992 72.4261C190.352 71.6119 192.153 69.9402 193.339 67.4606H193.342C197.436 58.9064 190.121 46.7878 176.223 37.4579C177.197 34.9925 177.299 32.3037 176.411 29.7832C175.43 27.0086 173.433 24.7808 170.781 23.5111C168.129 22.2359 165.142 22.0762 162.362 23.0533C159.838 23.9446 157.806 25.7083 156.497 28.0101C140.517 23.0297 126.489 24.9256 122.389 33.4798C121.467 35.4071 121.268 37.421 121.715 39.3711C108.248 45.5284 100.869 57.1694 100.925 72.3616L100.965 77.5575C100.996 80.498 101.074 86.0071 101.132 86.2533C101.131 86.2989 101.164 88.8996 101.164 89.6682C99.2716 90.1811 97.5473 91.1983 96.1462 92.6489C94.0537 94.8217 92.9594 97.6796 93.0672 100.696C93.1836 104.064 95.0952 107.316 98.1742 109.393C100.12 110.705 102.071 111.347 104.191 111.313C107.482 123.338 115.464 133.428 126.113 139.555C126.112 139.581 126.098 139.603 126.098 139.63V143.327L101.02 154.724C89.4934 159.963 82.0444 171.671 82.0444 184.547V210.429C82.0444 212.169 83.4518 213.576 85.1911 213.576H198.471C200.21 213.576 201.618 212.169 201.618 210.429V195.941C203.168 196.136 204.736 196.269 206.338 196.269C220.237 196.269 234.974 187.275 238.523 176.63C239.959 172.318 240.795 163.904 230.249 155.994V155.994ZM164.452 28.991C165.644 28.5733 166.923 28.6465 168.056 29.1846C169.949 30.0932 170.939 32.1015 170.674 34.0745C169.386 33.3657 168.066 32.6758 166.698 32.0205C165.342 31.3715 163.99 30.7791 162.642 30.2245C163.151 29.6904 163.737 29.242 164.452 28.991V28.991ZM128.062 36.1969C129.479 33.2438 133.901 31.5257 140.102 31.5257C146.583 31.5257 155.009 33.4003 163.981 37.6963C181.54 46.1097 190.553 58.7027 187.662 64.7443C187.084 65.9518 186.435 66.305 185.935 66.4804C182.272 67.7344 173.585 63.4352 164.366 58.8875C162.101 57.7689 159.726 56.5952 157.243 55.4057C154.806 54.2383 152.391 53.1165 150.049 52.0286C139.886 47.3054 129.383 42.4194 127.893 38.2682C127.648 37.5822 127.696 36.9616 128.062 36.1969V36.1969ZM124.913 44.8204C129.327 49.3272 137.566 53.1661 147.394 57.7351C149.717 58.8136 152.11 59.9259 154.526 61.0847C156.984 62.2615 159.338 63.4234 161.581 64.5295C168.723 68.0569 174.654 70.9778 179.589 72.2672V84.1655C170.173 91.2455 159.526 93.928 149.462 91.7277C140.439 89.7579 132.958 84.0396 128.938 76.0408C128.48 75.1314 127.61 74.4981 126.605 74.3447C125.594 74.1819 124.577 74.5288 123.87 75.2604C119.811 79.4392 113.883 81.9502 107.292 82.3617C107.289 80.8434 107.27 79.1906 107.255 77.4969L107.215 72.3372C107.156 56.1208 116.618 48.443 124.913 44.8204ZM109.646 107.089C109.465 106.207 108.915 105.445 108.134 104.993C107.354 104.545 106.416 104.458 105.559 104.738C104.343 105.153 103.218 105.209 101.694 104.176C100.299 103.236 99.4014 101.816 99.3519 100.473C99.3055 99.1767 99.7759 97.9502 100.673 97.0188C101.571 96.0906 102.775 95.5777 104.069 95.5777C104.92 95.5777 105.768 95.215 106.361 94.6069C107.235 93.7085 107.505 92.9376 107.451 88.6432C114.182 88.2656 120.427 86.07 125.321 82.3522C130.468 90.222 138.584 95.7964 148.119 97.8763C150.872 98.4789 153.653 98.777 156.44 98.777C164.267 98.7747 172.115 96.3919 179.421 91.8552C179.541 93.2932 179.828 93.9815 180.464 94.625C181.054 95.2244 181.893 95.5777 182.735 95.5777C184.088 95.5777 185.378 96.1582 186.272 97.1722C187.182 98.1988 187.588 99.5259 187.418 100.912C187.259 102.19 186.374 103.444 185.052 104.271C183.724 105.098 182.6 105.224 181.177 104.723C180.329 104.412 179.386 104.502 178.599 104.937C177.809 105.377 177.247 106.136 177.053 107.018C173.989 121.086 163.591 132.579 149.913 137.01L148.524 137.465C144.612 138.733 140.614 138.78 136.97 137.603C123.057 133.126 112.587 121.433 109.646 107.089V107.089ZM135.041 143.595C137.425 144.364 139.905 144.744 142.422 144.744C145.093 144.744 147.8 144.314 150.467 143.45L151.27 143.188V144.351C151.27 149.556 147.035 153.791 141.83 153.791C136.624 153.791 132.39 149.556 132.39 144.351V142.552C133.274 142.898 134.129 143.302 135.041 143.595V143.595ZM195.322 207.284H176.442V191.551C176.442 189.812 175.035 188.404 173.295 188.404C171.556 188.404 170.149 189.812 170.149 191.551V207.284H110.362V191.551C110.362 189.812 108.955 188.404 107.215 188.404C105.476 188.404 104.069 189.812 104.069 191.551V207.284H88.3354V184.548C88.3354 174.134 94.3369 164.675 103.623 160.453L127.118 149.776C129.339 155.774 135.068 160.084 141.829 160.084C148.59 160.084 154.319 155.774 156.539 149.775L168.75 155.323C168.662 156.384 168.575 157.445 168.575 158.511C168.575 175.502 179.858 189.897 195.322 194.623V207.284ZM232.55 174.641C229.874 182.667 217.379 189.978 206.335 189.978C188.985 189.978 174.869 175.861 174.869 158.511C174.869 149.05 179.051 139.711 186.054 133.531C191.008 129.158 196.929 126.835 202.989 126.835C203.972 126.835 204.959 126.896 205.945 127.019C218.258 128.559 218.677 134.612 219.257 142.989C219.688 149.231 220.176 156.304 226.476 161.028C232.108 165.253 234.152 169.835 232.55 174.641V174.641Z" fill="#999999"/>
<path d="M218.922 161.787C213.787 161.787 209.611 165.963 209.611 171.098C209.611 176.229 213.787 180.405 218.922 180.405C224.056 180.405 228.233 176.229 228.233 171.098C228.233 165.963 224.057 161.787 218.922 161.787V161.787ZM218.922 174.112C217.26 174.112 215.904 172.76 215.904 171.098C215.904 169.435 217.26 168.08 218.922 168.08C220.584 168.08 221.939 169.435 221.939 171.098C221.939 172.76 220.584 174.112 218.922 174.112Z" fill="#999999"/>
<path d="M200.042 131.396C195.5 131.396 191.806 135.089 191.806 139.631C191.806 144.173 195.5 147.867 200.042 147.867C204.584 147.867 208.277 144.173 208.277 139.631C208.277 135.089 204.584 131.396 200.042 131.396ZM200.042 141.573C198.973 141.573 198.099 140.701 198.099 139.631C198.099 138.561 198.972 137.689 200.042 137.689C201.112 137.689 201.984 138.561 201.984 139.631C201.984 140.701 201.112 141.573 200.042 141.573Z" fill="#999999"/>
<path d="M194.118 156.938C194.118 152.396 190.424 148.702 185.882 148.702C181.34 148.702 177.646 152.395 177.646 156.938C177.646 161.48 181.34 165.173 185.882 165.173C190.424 165.173 194.118 161.48 194.118 156.938ZM185.882 158.88C184.813 158.88 183.94 158.007 183.94 156.938C183.94 155.868 184.812 154.995 185.882 154.995C186.952 154.995 187.824 155.868 187.824 156.938C187.824 158.007 186.952 158.88 185.882 158.88Z" fill="#999999"/>
<path d="M196.895 169.155C192.354 169.155 188.66 172.849 188.66 177.391C188.66 181.933 192.353 185.626 196.895 185.626C201.437 185.626 205.131 181.933 205.131 177.391C205.131 172.849 201.437 169.155 196.895 169.155ZM196.895 179.333C195.826 179.333 194.953 178.461 194.953 177.391C194.953 176.321 195.825 175.449 196.895 175.449C197.965 175.449 198.838 176.321 198.838 177.391C198.838 178.461 197.965 179.333 196.895 179.333Z" fill="#999999"/>
<path d="M73.3028 136.131C72.7191 135.554 72.126 134.967 71.5486 134.361C71.5478 134.36 71.547 134.36 71.547 134.359C71.5462 134.359 71.5462 134.359 71.5462 134.358C69.1343 131.835 67.5271 129.536 67.5271 126.528C67.5271 122.53 65.4527 121.433 64.2145 121.136C59.3073 119.894 53.5607 129.525 50.5737 135.348C48.7793 138.847 46.6372 143.746 46.6372 147.209C46.6372 153.315 50.0049 158.599 54.9444 161.459L53.1241 201.882C52.9762 205.148 54.12 208.308 56.2613 210.545C58.1296 212.502 60.5817 213.578 63.1627 213.578C65.7438 213.578 68.1958 212.502 70.0641 210.545C72.2062 208.308 73.3493 205.149 73.2014 201.882L71.381 161.459C76.3205 158.598 79.689 153.314 79.689 147.209C79.6882 142.455 76.2953 139.094 73.3028 136.131V136.131ZM61.5642 129.622C62.1479 132.256 63.4294 134.447 64.9138 136.333C63.8015 137.16 62.7041 137.596 61.6319 137.639C60.1875 137.633 58.6205 136.966 57.3422 136.041C58.8659 133.334 60.363 131.15 61.5642 129.622ZM66.9143 202.165C66.9851 203.722 66.4746 205.195 65.5164 206.196C65.0428 206.694 64.2475 207.284 63.1627 207.284C62.0779 207.284 61.2818 206.694 60.809 206.196C59.8501 205.195 59.3403 203.722 59.4111 202.165L61.1504 163.531C61.8175 163.613 62.4736 163.735 63.1627 163.735C63.8518 163.735 64.5079 163.614 65.175 163.531L66.9143 202.165ZM63.1619 157.442C57.52 157.442 52.929 152.851 52.929 147.209C52.929 146.317 53.3962 144.42 54.5495 141.686C56.8151 143.136 59.12 143.936 61.447 143.936C61.5886 143.936 61.7294 143.932 61.8742 143.926C64.4513 143.827 66.9088 142.815 69.2161 140.941C71.4904 143.2 73.3949 145.181 73.3949 147.208C73.3949 152.851 68.8039 157.442 63.1619 157.442Z" fill="#999999"/>
</svg>

<svg width="285" height="268" fill="none" xmlns="http://www.w3.org/2000/svg"><path d="M70.64 262h-3.222l-4.29-7.008L58.806 262h-3l5.683-8.883-5.32-8.25h3.117l3.961 6.481 3.961-6.481h3.024l-5.356 8.297L70.641 262Zm7.243-5.332v-2.227H99.96v2.227H77.883ZM122.039 262h-3.223l-4.289-7.008-4.324 7.008h-3l5.684-8.883-5.321-8.25h3.118l3.961 6.481 3.96-6.481h3.024l-5.356 8.297 5.766 8.836Zm.047-12.961h3l2.637 7.348c.398 1.047.664 2.031.797 2.953h.093c.071-.43.199-.949.387-1.559.188-.617 1.18-3.531 2.977-8.742h2.976l-5.543 14.684c-1.008 2.695-2.687 4.043-5.039 4.043a7.92 7.92 0 0 1-1.781-.2v-2.179c.414.093.887.14 1.418.14 1.328 0 2.262-.769 2.801-2.308l.48-1.219-5.203-12.961Zm27.269 17.543h-2.566V262h-8.883v4.582h-2.543v-6.715h1.055c.922-1.32 1.652-2.914 2.191-4.781.547-1.875.871-3.891.973-6.047h7.875v10.828h1.898v6.715Zm-4.605-6.715v-8.719h-2.789a23.74 23.74 0 0 1-.938 4.758c-.468 1.563-1.043 2.883-1.722 3.961h5.449Zm18.504-4.371c0 2.117-.543 3.77-1.629 4.957-1.086 1.188-2.598 1.781-4.535 1.781-1.211 0-2.281-.273-3.211-.82-.93-.547-1.645-1.332-2.145-2.355-.5-1.024-.75-2.211-.75-3.563 0-2.101.539-3.742 1.618-4.922 1.078-1.179 2.597-1.769 4.558-1.769 1.875 0 3.36.605 4.453 1.816 1.094 1.203 1.641 2.828 1.641 4.875Zm-9.434 0c0 2.992 1.106 4.488 3.317 4.488 2.187 0 3.281-1.496 3.281-4.488 0-2.961-1.102-4.441-3.305-4.441-1.156 0-1.996.383-2.519 1.148-.516.766-.774 1.863-.774 3.293Zm18.996-.164v-6.293h2.567v6.293l4.992-6.293h2.906l-5.097 6.27 5.554 6.691h-3.035l-5.32-6.574V262h-2.567v-6.574L167.508 262h-3.024l5.543-6.691-5.086-6.27h2.907l4.968 6.293Zm15.68-6.293v5.203h6.106v-5.203h2.753V262h-2.753v-5.59h-6.106V262h-2.754v-12.961h2.754Zm15.445 0v6.645c0 .773-.062 1.91-.187 3.41l6.504-10.055h3.363V262h-2.648v-6.527c0-.36.019-.942.058-1.746.047-.805.086-1.391.117-1.758L204.668 262h-3.363v-12.961h2.636Zm21.645 0h3.023l-5.355 6.246 5.812 6.715h-3.164l-5.601-6.574V262h-2.754v-12.961h2.754v6.293l5.285-6.293Z" fill="#666"/><path d="M64.736 46.804c6.072 0 11.013-4.94 11.013-11.013 0-6.072-4.941-11.013-11.013-11.013-6.073 0-11.014 4.94-11.014 11.013 0 6.072 4.941 11.013 11.014 11.013Zm0-15.733a4.725 4.725 0 0 1 4.72 4.72 4.725 4.725 0 0 1-4.72 4.72 4.725 4.725 0 0 1-4.72-4.72 4.725 4.725 0 0 1 4.72-4.72ZM207.909 89.284c0 6.073 4.941 11.014 11.013 11.014s11.013-4.941 11.013-11.014c0-6.072-4.941-11.013-11.013-11.013s-11.013 4.941-11.013 11.013Zm11.013-4.72a4.725 4.725 0 0 1 4.72 4.72 4.725 4.725 0 0 1-4.72 4.72 4.725 4.725 0 0 1-4.72-4.72 4.725 4.725 0 0 1 4.72-4.72ZM231.509 55.087a3.563 3.563 0 1 0-.001-7.125 3.563 3.563 0 0 0 .001 7.125ZM80.469 67.674a3.563 3.563 0 1 0 0-7.126 3.563 3.563 0 0 0 0 7.126ZM196.757 40.65c.614.614 1.42.921 2.225.921.804 0 1.61-.307 2.224-.921l3.556-3.556 3.556 3.556c.614.614 1.42.921 2.225.921a3.146 3.146 0 0 0 2.224-5.371l-3.555-3.556 3.555-3.555a3.146 3.146 0 1 0-4.449-4.45l-3.556 3.556-3.556-3.556a3.146 3.146 0 1 0-4.449 4.45l3.556 3.555-3.556 3.556a3.146 3.146 0 0 0 0 4.45ZM52.01 106.729c.614.615 1.42.922 2.225.922.804 0 1.61-.307 2.224-.922l3.556-3.555 3.556 3.555c.614.615 1.42.922 2.225.922a3.145 3.145 0 0 0 2.225-5.371l-3.556-3.556 3.555-3.555a3.146 3.146 0 1 0-4.45-4.45l-3.555 3.556-3.556-3.556a3.146 3.146 0 1 0-4.449 4.45l3.556 3.555-3.556 3.556a3.145 3.145 0 0 0 0 4.449ZM159.135 108.164a3.147 3.147 0 1 0 0-6.294 3.147 3.147 0 0 0 0 6.294ZM127.669 108.164a3.147 3.147 0 1 0-.001-6.293 3.147 3.147 0 0 0 .001 6.293Z" fill="#999"/><path d="M230.249 155.994c-3.991-2.996-4.326-7.836-4.713-13.437-.606-8.734-1.359-19.599-18.81-21.782-8.893-1.103-17.709 1.746-24.838 8.036-5.925 5.233-10.109 12.371-12.059 20.09l-12.266-5.573v-2.539c0-.029-.016-.054-.017-.083 12.043-5.754 21.199-16.476 24.914-29.401 2.093.055 4.019-.508 5.921-1.693 2.92-1.822 4.896-4.785 5.283-7.931a11.063 11.063 0 0 0-2.673-8.678 11.043 11.043 0 0 0-5.344-3.328c-.006-.553-.028-2.563-.036-2.773.158-.377.273-14.025.273-14.025.728-.087 1.438-.219 2.108-.45 2.36-.815 4.161-2.487 5.347-4.966h.003c4.094-8.555-3.221-20.673-17.119-30.003.974-2.465 1.076-5.154.188-7.675a10.951 10.951 0 0 0-5.63-6.272 10.927 10.927 0 0 0-8.419-.458c-2.524.892-4.556 2.655-5.865 4.957-15.98-4.98-30.008-3.084-34.108 5.47-.922 1.927-1.121 3.941-.674 5.891-13.467 6.157-20.846 17.798-20.79 32.99l.04 5.197c.031 2.94.109 8.45.167 8.695-.001.046.032 2.647.032 3.415a10.939 10.939 0 0 0-5.018 2.98 10.943 10.943 0 0 0-3.079 8.048c.117 3.368 2.028 6.62 5.107 8.697 1.946 1.312 3.897 1.954 6.017 1.92 3.291 12.025 11.273 22.115 21.922 28.242-.001.026-.015.048-.015.075v3.697l-25.078 11.397c-11.527 5.239-18.976 16.947-18.976 29.823v25.882a3.145 3.145 0 0 0 3.147 3.147h113.28a3.145 3.145 0 0 0 3.147-3.147v-14.488c1.55.195 3.118.328 4.72.328 13.899 0 28.636-8.994 32.185-19.639 1.436-4.312 2.272-12.726-8.274-20.636ZM164.452 28.991a4.714 4.714 0 0 1 3.604.194c1.893.908 2.883 2.917 2.618 4.89a79.25 79.25 0 0 0-3.976-2.055 78.96 78.96 0 0 0-4.056-1.796c.509-.534 1.095-.982 1.81-1.233Zm-36.39 7.206c1.417-2.953 5.839-4.671 12.04-4.671 6.481 0 14.907 1.874 23.879 6.17 17.559 8.414 26.572 21.007 23.681 27.048-.578 1.208-1.227 1.561-1.727 1.736-3.663 1.254-12.35-3.045-21.569-7.593-2.265-1.118-4.64-2.292-7.123-3.481-2.437-1.168-4.852-2.29-7.194-3.377-10.163-4.724-20.666-9.61-22.156-13.76-.245-.687-.197-1.307.169-2.072Zm-3.149 8.623c4.414 4.507 12.653 8.346 22.481 12.915a624.251 624.251 0 0 1 7.132 3.35c2.458 1.176 4.812 2.338 7.055 3.444 7.142 3.528 13.073 6.449 18.008 7.738v11.898c-9.416 7.08-20.063 9.763-30.127 7.563-9.023-1.97-16.504-7.688-20.524-15.687a3.147 3.147 0 0 0-2.333-1.696 3.113 3.113 0 0 0-2.735.915c-4.059 4.18-9.987 6.69-16.578 7.102-.003-1.519-.022-3.171-.037-4.865l-.04-5.16c-.059-16.216 9.403-23.894 17.698-27.517Zm-15.267 62.269a3.155 3.155 0 0 0-1.512-2.096 3.186 3.186 0 0 0-2.575-.255c-1.216.415-2.341.471-3.865-.562-1.395-.94-2.293-2.36-2.342-3.703a4.696 4.696 0 0 1 1.321-3.454 4.685 4.685 0 0 1 3.396-1.441 3.25 3.25 0 0 0 2.292-.971c.874-.898 1.144-1.67 1.09-5.964 6.731-.377 12.976-2.573 17.87-6.29 5.147 7.869 13.263 13.443 22.798 15.523 2.753.603 5.534.901 8.321.901 7.827-.002 15.675-2.385 22.981-6.922.12 1.438.407 2.126 1.043 2.77.59.6 1.429.953 2.271.953 1.353 0 2.643.58 3.537 1.594.91 1.027 1.316 2.354 1.146 3.74-.159 1.278-1.044 2.532-2.366 3.359-1.328.827-2.452.953-3.875.452a3.12 3.12 0 0 0-2.578.214 3.158 3.158 0 0 0-1.546 2.081c-3.064 14.068-13.462 25.561-27.14 29.992l-1.389.455c-3.912 1.268-7.91 1.315-11.554.138-13.913-4.477-24.383-16.17-27.324-30.514Zm25.395 36.506a23.983 23.983 0 0 0 7.381 1.149c2.671 0 5.378-.43 8.045-1.294l.803-.262v1.163c0 5.205-4.235 9.44-9.44 9.44-5.206 0-9.44-4.235-9.44-9.44v-1.799c.884.346 1.739.75 2.651 1.043Zm60.281 63.689h-18.88v-15.733a3.145 3.145 0 0 0-3.147-3.147 3.145 3.145 0 0 0-3.146 3.147v15.733h-59.787v-15.733a3.145 3.145 0 0 0-3.147-3.147 3.145 3.145 0 0 0-3.146 3.147v15.733H88.335v-22.736c0-10.414 6.002-19.873 15.288-24.095l23.495-10.677c2.221 5.998 7.95 10.308 14.711 10.308s12.49-4.31 14.71-10.309l12.211 5.548c-.088 1.061-.175 2.122-.175 3.188 0 16.991 11.283 31.386 26.747 36.112v12.661Zm37.228-32.643c-2.676 8.026-15.171 15.337-26.215 15.337-17.35 0-31.466-14.117-31.466-31.467 0-9.461 4.182-18.8 11.185-24.98 4.954-4.373 10.875-6.696 16.935-6.696.983 0 1.97.061 2.956.184 12.313 1.54 12.732 7.593 13.312 15.97.431 6.242.919 13.315 7.219 18.039 5.632 4.225 7.676 8.807 6.074 13.613Z" fill="#999"/><path d="M218.922 161.787c-5.135 0-9.311 4.176-9.311 9.311 0 5.131 4.176 9.307 9.311 9.307 5.134 0 9.311-4.176 9.311-9.307 0-5.135-4.176-9.311-9.311-9.311Zm0 12.325a3.02 3.02 0 0 1-3.018-3.014 3.024 3.024 0 0 1 3.018-3.018 3.023 3.023 0 0 1 3.017 3.018 3.02 3.02 0 0 1-3.017 3.014ZM200.042 131.396c-4.542 0-8.236 3.693-8.236 8.235s3.694 8.236 8.236 8.236c4.542 0 8.235-3.694 8.235-8.236 0-4.542-3.693-8.235-8.235-8.235Zm0 10.177a1.947 1.947 0 0 1-1.943-1.942c0-1.07.873-1.942 1.943-1.942s1.942.872 1.942 1.942c0 1.07-.872 1.942-1.942 1.942ZM194.118 156.938c0-4.542-3.694-8.236-8.236-8.236-4.542 0-8.236 3.693-8.236 8.236 0 4.542 3.694 8.235 8.236 8.235 4.542 0 8.236-3.693 8.236-8.235Zm-8.236 1.942a1.947 1.947 0 0 1-1.942-1.942c0-1.07.872-1.943 1.942-1.943 1.07 0 1.942.873 1.942 1.943a1.946 1.946 0 0 1-1.942 1.942ZM196.895 169.155c-4.541 0-8.235 3.694-8.235 8.236 0 4.542 3.693 8.235 8.235 8.235s8.236-3.693 8.236-8.235-3.694-8.236-8.236-8.236Zm0 10.178a1.946 1.946 0 0 1-1.942-1.942c0-1.07.872-1.942 1.942-1.942 1.07 0 1.943.872 1.943 1.942 0 1.07-.873 1.942-1.943 1.942ZM73.303 136.131a83.175 83.175 0 0 1-1.754-1.77l-.002-.002v-.001c-2.413-2.523-4.02-4.822-4.02-7.83 0-3.998-2.074-5.095-3.313-5.392-4.907-1.242-10.653 8.389-13.64 14.212-1.795 3.499-3.937 8.398-3.937 11.861 0 6.106 3.368 11.39 8.307 14.25l-1.82 40.423c-.148 3.266.996 6.426 3.137 8.663 1.869 1.957 4.32 3.033 6.902 3.033 2.58 0 5.033-1.076 6.901-3.033 2.142-2.237 3.285-5.396 3.137-8.663l-1.82-40.423c4.94-2.861 8.308-8.145 8.308-14.25 0-4.754-3.394-8.115-6.386-11.078Zm-11.739-6.509c.584 2.634 1.865 4.825 3.35 6.711-1.113.827-2.21 1.263-3.282 1.306-1.444-.006-3.011-.673-4.29-1.598 1.524-2.707 3.021-4.891 4.222-6.419Zm5.35 72.543c.071 1.557-.44 3.03-1.398 4.031-.473.498-1.269 1.088-2.353 1.088-1.085 0-1.881-.59-2.354-1.088-.959-1.001-1.469-2.474-1.398-4.031l1.74-38.634c.666.082 1.323.204 2.012.204.689 0 1.345-.121 2.012-.204l1.74 38.634Zm-3.752-44.723c-5.642 0-10.233-4.591-10.233-10.233 0-.892.467-2.789 1.62-5.523 2.266 1.45 4.571 2.25 6.898 2.25.142 0 .282-.004.427-.01 2.577-.099 5.035-1.111 7.342-2.985 2.274 2.259 4.179 4.24 4.179 6.267 0 5.643-4.591 10.234-10.233 10.234Z" fill="#999"/></svg>
